assets/images/share.svg

<svg width="20" height="20" viewBox="0 0 20 20" fill="none" xmlns="http://www.w3.org/2000/svg">
<path d="M15.8594 12.9688C14.7017 12.9688 13.6731 13.5313 13.0321 14.3973L7.51375 11.5772C7.60633 11.2627 7.65625 10.93 7.65625 10.5859C7.65625 10.1199 7.56488 9.67484 7.39945 9.26746L13.183 5.79254C13.8284 6.54996 14.7887 7.03125 15.8594 7.03125C17.7979 7.03125 19.375 5.45414 19.375 3.51562C19.375 1.57711 17.7979 0 15.8594 0C13.9209 0 12.3438 1.57711 12.3438 3.51562C12.3438 3.96367 12.4282 4.3923 12.5816 4.78672L6.78359 8.27031C6.13875 7.53523 5.19301 7.07031 4.14062 7.07031C2.20211 7.07031 0.625 8.64742 0.625 10.5859C0.625 12.5245 2.20211 14.1016 4.14062 14.1016C5.31727 14.1016 6.36063 13.5205 6.9991 12.6302L12.5014 15.4421C12.399 15.7716 12.3438 16.1216 12.3438 16.4844C12.3438 18.4229 13.9209 20 15.8594 20C17.7979 20 19.375 18.4229 19.375 16.4844C19.375 14.5459 17.7979 12.9688 15.8594 12.9688ZM15.8594 1.17188C17.1517 1.17188 18.2031 2.22328 18.2031 3.51562C18.2031 4.80797 17.1517 5.85938 15.8594 5.85938C14.567 5.85938 13.5156 4.80797 13.5156 3.51562C13.5156 2.22328 14.567 1.17188 15.8594 1.17188ZM4.14062 12.9297C2.84828 12.9297 1.79688 11.8783 1.79688 10.5859C1.79688 9.29359 2.84828 8.24219 4.14062 8.24219C5.43297 8.24219 6.48438 9.29359 6.48438 10.5859C6.48438 11.8783 5.43297 12.9297 4.14062 12.9297ZM15.8594 18.8281C14.567 18.8281 13.5156 17.7767 13.5156 16.4844C13.5156 15.192 14.567 14.1406 15.8594 14.1406C17.1517 14.1406 18.2031 15.192 18.2031 16.4844C18.2031 17.7767 17.1517 18.8281 15.8594 18.8281Z" fill="white"/>
</svg>

<svg width="20" height="20" fill="none" xmlns="http://www.w3.org/2000/svg"><path d="M15.86 12.969a3.513 3.513 0 0 0-2.828 1.428l-5.518-2.82a3.506 3.506 0 0 0-.115-2.31l5.784-3.474a3.51 3.51 0 0 0 2.676 1.238 3.52 3.52 0 0 0 3.516-3.515A3.52 3.52 0 0 0 15.859 0a3.52 3.52 0 0 0-3.277 4.787L6.784 8.27a3.508 3.508 0 0 0-2.643-1.2 3.52 3.52 0 0 0-3.516 3.516 3.513 3.513 0 0 0 6.374 2.044l5.502 2.812A3.52 3.52 0 0 0 15.86 20a3.52 3.52 0 0 0 3.516-3.516 3.52 3.52 0 0 0-3.516-3.515Zm0-11.797a2.346 2.346 0 0 1 2.343 2.344 2.346 2.346 0 0 1-2.344 2.343 2.346 2.346 0 0 1-2.343-2.343 2.346 2.346 0 0 1 2.343-2.344ZM4.14 12.93a2.346 2.346 0 0 1-2.343-2.344A2.346 2.346 0 0 1 4.14 8.242a2.346 2.346 0 0 1 2.343 2.344A2.346 2.346 0 0 1 4.14 12.93Zm11.72 5.898a2.346 2.346 0 0 1-2.344-2.344 2.346 2.346 0 0 1 2.343-2.343 2.346 2.346 0 0 1 2.344 2.343 2.346 2.346 0 0 1-2.344 2.344Z" fill="#fff"/></svg>
